<?xml version="1.0" encoding="UTF-8"?>
<map version="1.10" tiledversion="1.11.0" orientation="orthogonal" renderorder="right-down" width="36" height="26" tilewidth="32" tileheight="32" infinite="0" nextlayerid="10" nextobjectid="52">
 <properties>
  <property name="titulo" value="Cabin"/>
  <property name="version" value="20261007"/>
  <property name="escala" value="2"/>
 </properties>
 <tileset firstgid="1" name="interiores" tilewidth="64" tileheight="64" tilecount="296" columns="16">
  <image source="../../Game/MAPAS/Interiores/interiores_64.png" width="1024" height="1216"/>
 </tileset>
 <tileset firstgid="297" name="muebles_interior" tilewidth="326" tileheight="338" tilecount="61" columns="0">
  <grid orientation="orthogonal" width="1" height="1"/>
  <tile id="0"><image source="../../Game/MAPAS/Interiores/muebles/alfombra_azul.png" width="136" height="68"/></tile>
  <tile id="1"><image source="../../Game/MAPAS/Interiores/muebles/alfombra_morada.png" width="326" height="52"/></tile>
  <tile id="2"><image source="../../Game/MAPAS/Interiores/muebles/alfombra_pasillo.png" width="52" height="338"/></tile>
  <tile id="3"><image source="../../Game/MAPAS/Interiores/muebles/alfombra_roja.png" width="135" height="68"/></tile>
  <tile id="4"><image source="../../Game/MAPAS/Interiores/muebles/alfombra_verde.png" width="136" height="68"/></tile>
  <tile id="5"><image source="../../Game/MAPAS/Interiores/muebles/aplique.png" width="18" height="32"/></tile>
  <tile id="6"><image source="../../Game/MAPAS/Interiores/muebles/armario.png" width="62" height="108"/></tile>
  <tile id="7"><image source="../../Game/MAPAS/Interiores/muebles/armero.png" width="80" height="92"/></tile>
  <tile id="8"><image source="../../Game/MAPAS/Interiores/muebles/barra.png" width="174" height="108"/></tile>
  <tile id="9"><image source="../../Game/MAPAS/Interiores/muebles/barra2.png" width="174" height="108"/></tile>
  <tile id="10"><image source="../../Game/MAPAS/Interiores/muebles/barril.png" width="54" height="60"/></tile>
  <tile id="11"><image source="../../Game/MAPAS/Interiores/muebles/barril_abierto.png" width="54" height="60"/></tile>
  <tile id="12"><image source="../../Game/MAPAS/Interiores/muebles/brasero_1.png" width="50" height="64"/></tile>
  <tile id="13"><image source="../../Game/MAPAS/Interiores/muebles/brasero_2.png" width="50" height="58"/></tile>
  <tile id="14"><image source="../../Game/MAPAS/Interiores/muebles/cajon.png" width="58" height="48"/></tile>
  <tile id="15"><image source="../../Game/MAPAS/Interiores/muebles/caldero.png" width="54" height="50"/></tile>
  <tile id="16"><image source="../../Game/MAPAS/Interiores/muebles/caldero_fuego_1.png" width="74" height="50"/></tile>
  <tile id="17"><image source="../../Game/MAPAS/Interiores/muebles/caldero_fuego_2.png" width="76" height="50"/></tile>
  <tile id="18"><image source="../../Game/MAPAS/Interiores/muebles/cama_azul.png" width="78" height="117"/></tile>
  <tile id="19"><image source="../../Game/MAPAS/Interiores/muebles/cama_roja.png" width="78" height="117"/></tile>
  <tile id="20"><image source="../../Game/MAPAS/Interiores/muebles/cama_verde.png" width="78" height="117"/></tile>
  <tile id="21"><image source="../../Game/MAPAS/Interiores/muebles/carbon.png" width="46" height="48"/></tile>
  <tile id="22"><image source="../../Game/MAPAS/Interiores/muebles/cesta.png" width="40" height="44"/></tile>
  <tile id="23"><image source="../../Game/MAPAS/Interiores/muebles/chimenea.png" width="78" height="104"/></tile>
  <tile id="24"><image source="../../Game/MAPAS/Interiores/muebles/cofre.png" width="34" height="34"/></tile>
  <tile id="25"><image source="../../Game/MAPAS/Interiores/muebles/cuadro_bosque.png" width="90" height="49"/></tile>
  <tile id="26"><image source="../../Game/MAPAS/Interiores/muebles/cuadro_dia.png" width="90" height="49"/></tile>
  <tile id="27"><image source="../../Game/MAPAS/Interiores/muebles/cuadro_noche.png" width="90" height="49"/></tile>
  <tile id="28"><image source="../../Game/MAPAS/Interiores/muebles/cubo.png" width="21" height="23"/></tile>
  <tile id="29"><image source="../../Game/MAPAS/Interiores/muebles/escalera.png" width="81" height="85"/></tile>
  <tile id="30"><image source="../../Game/MAPAS/Interiores/muebles/escoba.png" width="20" height="84"/></tile>
  <tile id="31"><image source="../../Game/MAPAS/Interiores/muebles/estante_frascos.png" width="52" height="69"/></tile>
  <tile id="32"><image source="../../Game/MAPAS/Interiores/muebles/estante_herramientas.png" width="60" height="94"/></tile>
  <tile id="33"><image source="../../Game/MAPAS/Interiores/muebles/estante_herramientas2.png" width="60" height="94"/></tile>
  <tile id="34"><image source="../../Game/MAPAS/Interiores/muebles/estante_libros.png" width="72" height="115"/></tile>
  <tile id="35"><image source="../../Game/MAPAS/Interiores/muebles/estante_libros2.png" width="72" height="115"/></tile>
  <tile id="36"><image source="../../Game/MAPAS/Interiores/muebles/estante_pociones.png" width="126" height="141"/></tile>
  <tile id="37"><image source="../../Game/MAPAS/Interiores/muebles/expositor_fruta.png" width="59" height="76"/></tile>
  <tile id="38"><image source="../../Game/MAPAS/Interiores/muebles/expositor_pociones.png" width="59" height="76"/></tile>
  <tile id="39"><image source="../../Game/MAPAS/Interiores/muebles/expositor_verdura.png" width="59" height="76"/></tile>
  <tile id="40"><image source="../../Game/MAPAS/Interiores/muebles/farol_1.png" width="34" height="104"/></tile>
  <tile id="41"><image source="../../Game/MAPAS/Interiores/muebles/farol_2.png" width="34" height="104"/></tile>
  <tile id="42"><image source="../../Game/MAPAS/Interiores/muebles/farol_pared.png" width="64" height="77"/></tile>
  <tile id="43"><image source="../../Game/MAPAS/Interiores/muebles/fragua.png" width="63" height="141"/></tile>
  <tile id="44"><image source="../../Game/MAPAS/Interiores/muebles/mesa_comida.png" width="102" height="55"/></tile>
  <tile id="45"><image source="../../Game/MAPAS/Interiores/muebles/mesa_espada.png" width="60" height="48"/></tile>
  <tile id="46"><image source="../../Game/MAPAS/Interiores/muebles/mesa_larga.png" width="65" height="128"/></tile>
  <tile id="47"><image source="../../Game/MAPAS/Interiores/muebles/mesa_vela.png" width="60" height="62"/></tile>
  <tile id="48"><image source="../../Game/MAPAS/Interiores/muebles/mostrador.png" width="95" height="45"/></tile>
  <tile id="49"><image source="../../Game/MAPAS/Interiores/muebles/nasas.png" width="90" height="64"/></tile>
  <tile id="50"><image source="../../Game/MAPAS/Interiores/muebles/pila_lena.png" width="86" height="52"/></tile>
  <tile id="51"><image source="../../Game/MAPAS/Interiores/muebles/planta_alta.png" width="39" height="82"/></tile>
  <tile id="52"><image source="../../Game/MAPAS/Interiores/muebles/planta_cactus.png" width="30" height="50"/></tile>
  <tile id="53"><image source="../../Game/MAPAS/Interiores/muebles/planta_flores.png" width="64" height="79"/></tile>
  <tile id="54"><image source="../../Game/MAPAS/Interiores/muebles/planta_pequena.png" width="30" height="50"/></tile>
  <tile id="55"><image source="../../Game/MAPAS/Interiores/muebles/red_pesca.png" width="90" height="72"/></tile>
  <tile id="56"><image source="../../Game/MAPAS/Interiores/muebles/silla.png" width="30" height="56"/></tile>
  <tile id="57"><image source="../../Game/MAPAS/Interiores/muebles/silla_b.png" width="30" height="56"/></tile>
  <tile id="58"><image source="../../Game/MAPAS/Interiores/muebles/taburete.png" width="32" height="28"/></tile>
  <tile id="59"><image source="../../Game/MAPAS/Interiores/muebles/taburete_bar.png" width="29" height="32"/></tile>
  <tile id="60"><image source="../../Game/MAPAS/Interiores/muebles/yunque.png" width="62" height="55"/></tile>
 </tileset>
 <layer id="1" name="suelo" width="36" height="26">
  <data encoding="csv">
0,0,0,0,0,0,0,0,0,0,0,0,0,0,0,0,0,0,0,0,0,0,0,0,0,0,0,0,0,0,0,0,0,0,0,0,
1,0,2,0,2,0,2,0,2,0,2,0,2,0,2,0,2,0,2,0,2,0,2,0,2,0,2,0,2,0,2,0,2,0,3,0,
0,0,0,0,0,0,0,0,0,0,0,0,0,0,0,0,0,0,0,0,0,0,0,0,0,0,0,0,0,0,0,0,0,0,0,0,
4,0,201,0,202,0,203,0,204,0,205,0,206,0,207,0,208,0,209,0,210,0,211,0,212,0,213,0,214,0,215,0,216,0,13,0,
0,0,0,0,0,0,0,0,0,0,0,0,0,0,0,0,0,0,0,0,0,0,0,0,0,0,0,0,0,0,0,0,0,0,0,0,
4,0,217,0,218,0,219,0,220,0,221,0,222,0,223,0,224,0,225,0,226,0,227,0,228,0,229,0,230,0,231,0,232,0,13,0,
0,0,0,0,0,0,0,0,0,0,0,0,0,0,0,0,0,0,0,0,0,0,0,0,0,0,0,0,0,0,0,0,0,0,0,0,
4,0,233,0,234,0,235,0,236,0,237,0,238,0,239,0,240,0,241,0,242,0,243,0,244,0,245,0,246,0,247,0,248,0,13,0,
0,0,0,0,0,0,0,0,0,0,0,0,0,0,0,0,0,0,0,0,0,0,0,0,0,0,0,0,0,0,0,0,0,0,0,0,
4,0,249,0,250,0,251,0,252,0,253,0,254,0,255,0,256,0,257,0,258,0,259,0,260,0,261,0,262,0,263,0,264,0,13,0,
0,0,0,0,0,0,0,0,0,0,0,0,0,0,0,0,0,0,0,0,0,0,0,0,0,0,0,0,0,0,0,0,0,0,0,0,
4,0,265,0,266,0,267,0,268,0,269,0,270,0,271,0,272,0,273,0,274,0,275,0,276,0,277,0,278,0,279,0,280,0,13,0,
0,0,0,0,0,0,0,0,0,0,0,0,0,0,0,0,0,0,0,0,0,0,0,0,0,0,0,0,0,0,0,0,0,0,0,0,
4,0,281,0,282,0,249,0,250,0,251,0,252,0,253,0,254,0,255,0,256,0,257,0,258,0,259,0,260,0,261,0,262,0,13,0,
0,0,0,0,0,0,0,0,0,0,0,0,0,0,0,0,0,0,0,0,0,0,0,0,0,0,0,0,0,0,0,0,0,0,0,0,
4,0,283,0,284,0,265,0,266,0,267,0,268,0,269,0,270,0,271,0,272,0,273,0,274,0,275,0,276,0,277,0,278,0,13,0,
0,0,0,0,0,0,0,0,0,0,0,0,0,0,0,0,0,0,0,0,0,0,0,0,0,0,0,0,0,0,0,0,0,0,0,0,
4,0,285,0,286,0,281,0,282,0,249,0,250,0,251,0,252,0,253,0,254,0,255,0,256,0,257,0,258,0,259,0,260,0,13,0,
0,0,0,0,0,0,0,0,0,0,0,0,0,0,0,0,0,0,0,0,0,0,0,0,0,0,0,0,0,0,0,0,0,0,0,0,
4,0,287,0,288,0,283,0,284,0,265,0,266,0,267,0,268,0,269,0,270,0,271,0,272,0,273,0,274,0,275,0,276,0,13,0,
0,0,0,0,0,0,0,0,0,0,0,0,0,0,0,0,0,0,0,0,0,0,0,0,0,0,0,0,0,0,0,0,0,0,0,0,
4,0,289,0,290,0,285,0,286,0,281,0,282,0,249,0,250,0,251,0,252,0,253,0,254,0,255,0,256,0,257,0,258,0,13,0,
0,0,0,0,0,0,0,0,0,0,0,0,0,0,0,0,0,0,0,0,0,0,0,0,0,0,0,0,0,0,0,0,0,0,0,0,
4,0,291,0,292,0,287,0,288,0,283,0,284,0,265,0,293,0,294,0,268,0,269,0,270,0,271,0,272,0,273,0,274,0,13,0,
0,0,0,0,0,0,0,0,0,0,0,0,0,0,0,0,0,0,0,0,0,0,0,0,0,0,0,0,0,0,0,0,0,0,0,0,
78,0,79,0,79,0,79,0,79,0,79,0,79,0,79,0,295,0,296,0,79,0,79,0,79,0,79,0,79,0,79,0,79,0,82,0
</data>
 </layer>
 <objectgroup id="52" name="muebles">
  <object id="1" name="cama_verde" x="90" y="382" gid="317" width="78" height="117"><properties><property name="pie" type="int" value="99"/></properties></object>
  <object id="2" name="cofre" x="112" y="428" gid="321" width="34" height="34"/>
  <object id="3" name="mesa_vela" x="180" y="314" gid="344" width="60" height="62"><properties><property name="anim" type="string" value="vela"/><property name="fx" type="int" value="10"/><property name="fy" type="int" value="8"/><property name="pie" type="int" value="22"/><property name="k" type="float" value="1.25"/></properties></object>
  <object id="4" name="chimenea" x="420" y="302" gid="320" width="78" height="104"><properties><property name="anim" type="string" value="fuego"/><property name="fx" type="int" value="39"/><property name="fy" type="int" value="80"/><property name="pie" type="int" value="33"/><property name="k" type="float" value="1.5"/></properties></object>
  <object id="5" name="pila_lena" x="514" y="306" gid="347" width="86" height="52"/>
  <object id="6" name="cesta" x="360" y="300" gid="319" width="40" height="44"/>
  <object id="7" name="alfombra_verde" x="390" y="470" gid="301" width="136" height="68"><properties><property name="plano" type="bool" value="true"/></properties></object>
  <object id="8" name="silla" x="534" y="452" gid="353" width="30" height="56"/>
  <object id="9" name="aplique" x="330" y="200" gid="302" width="18" height="32"><properties><property name="plano" type="bool" value="true"/><property name="anim" type="string" value="vela"/><property name="fx" type="int" value="9"/><property name="fy" type="int" value="4"/><property name="k" type="float" value="1.25"/></properties></object>
  <object id="10" name="aplique" x="660" y="200" gid="302" width="18" height="32"><properties><property name="plano" type="bool" value="true"/><property name="anim" type="string" value="vela"/><property name="fx" type="int" value="9"/><property name="fy" type="int" value="4"/><property name="k" type="float" value="1.25"/></properties></object>
  <object id="11" name="cesta" x="812" y="300" gid="319" width="40" height="44"/>
  <object id="12" name="red_pesca" x="890" y="300" gid="352" width="90" height="72"><properties><property name="pie" type="int" value="16"/></properties></object>
  <object id="13" name="barril" x="1000" y="312" gid="307" width="54" height="60"/>
  <object id="14" name="mesa_comida" x="700" y="580" gid="341" width="102" height="55"/>
  <object id="15" name="taburete" x="662" y="610" gid="355" width="32" height="28"/>
  <object id="16" name="taburete" x="808" y="610" gid="355" width="32" height="28"/>
  <object id="17" name="nasas" x="980" y="760" gid="346" width="90" height="64"/>
  <object id="18" name="cajon" x="900" y="760" gid="311" width="58" height="48"/>
  <object id="19" name="planta_pequena" x="84" y="750" gid="351" width="30" height="50"/>
  <object id="20" name="cubo" x="470" y="760" gid="325" width="21" height="23"/>
  <object id="21" name="escoba" x="664" y="754" gid="327" width="20" height="84"/>
 </objectgroup>
 <objectgroup id="53" name="colisiones">
  <object id="22" name="" x="0" y="0" width="1152" height="260"/>
  <object id="23" name="" x="0" y="0" width="68" height="832"/>
  <object id="24" name="" x="1084" y="0" width="68" height="832"/>
  <object id="25" name="" x="0" y="776" width="520" height="56"/>
  <object id="26" name="" x="632" y="776" width="520" height="56"/>
  <object id="27" name="" x="96" y="283" width="66" height="99"/>
  <object id="28" name="" x="118" y="408" width="22" height="20"/>
  <object id="29" name="" x="186" y="292" width="48" height="22"/>
  <object id="30" name="" x="426" y="269" width="66" height="33"/>
  <object id="31" name="" x="520" y="286" width="74" height="20"/>
  <object id="32" name="" x="366" y="280" width="28" height="20"/>
  <object id="33" name="" x="540" y="432" width="18" height="20"/>
  <object id="34" name="" x="818" y="280" width="28" height="20"/>
  <object id="35" name="" x="896" y="284" width="78" height="16"/>
  <object id="36" name="" x="1006" y="292" width="42" height="20"/>
  <object id="37" name="" x="706" y="560" width="90" height="20"/>
  <object id="38" name="" x="668" y="590" width="20" height="20"/>
  <object id="39" name="" x="814" y="590" width="20" height="20"/>
  <object id="40" name="" x="986" y="740" width="78" height="20"/>
  <object id="41" name="" x="906" y="740" width="46" height="20"/>
  <object id="42" name="" x="90" y="730" width="18" height="20"/>
  <object id="43" name="" x="476" y="740" width="12" height="20"/>
  <object id="44" name="" x="670" y="728" width="12" height="26"/>
 </objectgroup>
 <objectgroup id="54" name="salida">
  <object id="45" name="salida" x="524" y="772" width="104" height="52"/>
 </objectgroup>
 <objectgroup id="55" name="aparicion">
  <object id="46" name="aparicion" x="576" y="640"><point/></object>
 </objectgroup>
 <objectgroup id="56" name="luces">
  <object id="47" name="ventana" x="800" y="256" width="100" height="240"/>
  <object id="48" name="vela" x="190" y="260"><point/><properties><property name="radio" type="int" value="108"/></properties></object>
  <object id="49" name="fuego" x="459" y="278"><point/><properties><property name="radio" type="int" value="240"/></properties></object>
  <object id="50" name="vela" x="339" y="172"><point/><properties><property name="radio" type="int" value="108"/></properties></object>
  <object id="51" name="vela" x="669" y="172"><point/><properties><property name="radio" type="int" value="108"/></properties></object>
 </objectgroup>
</map>
