<?xml version="1.0" encoding="UTF-8"?>
<map version="1.10" tiledversion="1.11.0" orientation="orthogonal" renderorder="right-down" width="48" height="32" tilewidth="32" tileheight="32" infinite="0" nextlayerid="10" nextobjectid="119">
 <properties>
  <property name="titulo" value="Inn"/>
  <property name="version" value="20261007"/>
  <property name="escala" value="2"/>
 </properties>
 <tileset firstgid="1" name="interiores" tilewidth="64" tileheight="64" tilecount="296" columns="16">
  <image source="../../Game/MAPAS/Interiores/interiores_64.png" width="1024" height="1216"/>
 </tileset>
 <tileset firstgid="297" name="muebles_interior" tilewidth="326" tileheight="338" tilecount="61" columns="0">
  <grid orientation="orthogonal" width="1" height="1"/>
  <tile id="0"><image source="../../Game/MAPAS/Interiores/muebles/alfombra_azul.png" width="136" height="68"/></tile>
  <tile id="1"><image source="../../Game/MAPAS/Interiores/muebles/alfombra_morada.png" width="326" height="52"/></tile>
  <tile id="2"><image source="../../Game/MAPAS/Interiores/muebles/alfombra_pasillo.png" width="52" height="338"/></tile>
  <tile id="3"><image source="../../Game/MAPAS/Interiores/muebles/alfombra_roja.png" width="135" height="68"/></tile>
  <tile id="4"><image source="../../Game/MAPAS/Interiores/muebles/alfombra_verde.png" width="136" height="68"/></tile>
  <tile id="5"><image source="../../Game/MAPAS/Interiores/muebles/aplique.png" width="18" height="32"/></tile>
  <tile id="6"><image source="../../Game/MAPAS/Interiores/muebles/armario.png" width="62" height="108"/></tile>
  <tile id="7"><image source="../../Game/MAPAS/Interiores/muebles/armero.png" width="80" height="92"/></tile>
  <tile id="8"><image source="../../Game/MAPAS/Interiores/muebles/barra.png" width="174" height="108"/></tile>
  <tile id="9"><image source="../../Game/MAPAS/Interiores/muebles/barra2.png" width="174" height="108"/></tile>
  <tile id="10"><image source="../../Game/MAPAS/Interiores/muebles/barril.png" width="54" height="60"/></tile>
  <tile id="11"><image source="../../Game/MAPAS/Interiores/muebles/barril_abierto.png" width="54" height="60"/></tile>
  <tile id="12"><image source="../../Game/MAPAS/Interiores/muebles/brasero_1.png" width="50" height="64"/></tile>
  <tile id="13"><image source="../../Game/MAPAS/Interiores/muebles/brasero_2.png" width="50" height="58"/></tile>
  <tile id="14"><image source="../../Game/MAPAS/Interiores/muebles/cajon.png" width="58" height="48"/></tile>
  <tile id="15"><image source="../../Game/MAPAS/Interiores/muebles/caldero.png" width="54" height="50"/></tile>
  <tile id="16"><image source="../../Game/MAPAS/Interiores/muebles/caldero_fuego_1.png" width="74" height="50"/></tile>
  <tile id="17"><image source="../../Game/MAPAS/Interiores/muebles/caldero_fuego_2.png" width="76" height="50"/></tile>
  <tile id="18"><image source="../../Game/MAPAS/Interiores/muebles/cama_azul.png" width="78" height="117"/></tile>
  <tile id="19"><image source="../../Game/MAPAS/Interiores/muebles/cama_roja.png" width="78" height="117"/></tile>
  <tile id="20"><image source="../../Game/MAPAS/Interiores/muebles/cama_verde.png" width="78" height="117"/></tile>
  <tile id="21"><image source="../../Game/MAPAS/Interiores/muebles/carbon.png" width="46" height="48"/></tile>
  <tile id="22"><image source="../../Game/MAPAS/Interiores/muebles/cesta.png" width="40" height="44"/></tile>
  <tile id="23"><image source="../../Game/MAPAS/Interiores/muebles/chimenea.png" width="78" height="104"/></tile>
  <tile id="24"><image source="../../Game/MAPAS/Interiores/muebles/cofre.png" width="34" height="34"/></tile>
  <tile id="25"><image source="../../Game/MAPAS/Interiores/muebles/cuadro_bosque.png" width="90" height="49"/></tile>
  <tile id="26"><image source="../../Game/MAPAS/Interiores/muebles/cuadro_dia.png" width="90" height="49"/></tile>
  <tile id="27"><image source="../../Game/MAPAS/Interiores/muebles/cuadro_noche.png" width="90" height="49"/></tile>
  <tile id="28"><image source="../../Game/MAPAS/Interiores/muebles/cubo.png" width="21" height="23"/></tile>
  <tile id="29"><image source="../../Game/MAPAS/Interiores/muebles/escalera.png" width="81" height="85"/></tile>
  <tile id="30"><image source="../../Game/MAPAS/Interiores/muebles/escoba.png" width="20" height="84"/></tile>
  <tile id="31"><image source="../../Game/MAPAS/Interiores/muebles/estante_frascos.png" width="52" height="69"/></tile>
  <tile id="32"><image source="../../Game/MAPAS/Interiores/muebles/estante_herramientas.png" width="60" height="94"/></tile>
  <tile id="33"><image source="../../Game/MAPAS/Interiores/muebles/estante_herramientas2.png" width="60" height="94"/></tile>
  <tile id="34"><image source="../../Game/MAPAS/Interiores/muebles/estante_libros.png" width="72" height="115"/></tile>
  <tile id="35"><image source="../../Game/MAPAS/Interiores/muebles/estante_libros2.png" width="72" height="115"/></tile>
  <tile id="36"><image source="../../Game/MAPAS/Interiores/muebles/estante_pociones.png" width="126" height="141"/></tile>
  <tile id="37"><image source="../../Game/MAPAS/Interiores/muebles/expositor_fruta.png" width="59" height="76"/></tile>
  <tile id="38"><image source="../../Game/MAPAS/Interiores/muebles/expositor_pociones.png" width="59" height="76"/></tile>
  <tile id="39"><image source="../../Game/MAPAS/Interiores/muebles/expositor_verdura.png" width="59" height="76"/></tile>
  <tile id="40"><image source="../../Game/MAPAS/Interiores/muebles/farol_1.png" width="34" height="104"/></tile>
  <tile id="41"><image source="../../Game/MAPAS/Interiores/muebles/farol_2.png" width="34" height="104"/></tile>
  <tile id="42"><image source="../../Game/MAPAS/Interiores/muebles/farol_pared.png" width="64" height="77"/></tile>
  <tile id="43"><image source="../../Game/MAPAS/Interiores/muebles/fragua.png" width="63" height="141"/></tile>
  <tile id="44"><image source="../../Game/MAPAS/Interiores/muebles/mesa_comida.png" width="102" height="55"/></tile>
  <tile id="45"><image source="../../Game/MAPAS/Interiores/muebles/mesa_espada.png" width="60" height="48"/></tile>
  <tile id="46"><image source="../../Game/MAPAS/Interiores/muebles/mesa_larga.png" width="65" height="128"/></tile>
  <tile id="47"><image source="../../Game/MAPAS/Interiores/muebles/mesa_vela.png" width="60" height="62"/></tile>
  <tile id="48"><image source="../../Game/MAPAS/Interiores/muebles/mostrador.png" width="95" height="45"/></tile>
  <tile id="49"><image source="../../Game/MAPAS/Interiores/muebles/nasas.png" width="90" height="64"/></tile>
  <tile id="50"><image source="../../Game/MAPAS/Interiores/muebles/pila_lena.png" width="86" height="52"/></tile>
  <tile id="51"><image source="../../Game/MAPAS/Interiores/muebles/planta_alta.png" width="39" height="82"/></tile>
  <tile id="52"><image source="../../Game/MAPAS/Interiores/muebles/planta_cactus.png" width="30" height="50"/></tile>
  <tile id="53"><image source="../../Game/MAPAS/Interiores/muebles/planta_flores.png" width="64" height="79"/></tile>
  <tile id="54"><image source="../../Game/MAPAS/Interiores/muebles/planta_pequena.png" width="30" height="50"/></tile>
  <tile id="55"><image source="../../Game/MAPAS/Interiores/muebles/red_pesca.png" width="90" height="72"/></tile>
  <tile id="56"><image source="../../Game/MAPAS/Interiores/muebles/silla.png" width="30" height="56"/></tile>
  <tile id="57"><image source="../../Game/MAPAS/Interiores/muebles/silla_b.png" width="30" height="56"/></tile>
  <tile id="58"><image source="../../Game/MAPAS/Interiores/muebles/taburete.png" width="32" height="28"/></tile>
  <tile id="59"><image source="../../Game/MAPAS/Interiores/muebles/taburete_bar.png" width="29" height="32"/></tile>
  <tile id="60"><image source="../../Game/MAPAS/Interiores/muebles/yunque.png" width="62" height="55"/></tile>
 </tileset>
 <layer id="1" name="suelo" width="48" height="32">
  <data encoding="csv">
0,0,0,0,0,0,0,0,0,0,0,0,0,0,0,0,0,0,0,0,0,0,0,0,0,0,0,0,0,0,0,0,0,0,0,0,0,0,0,0,0,0,0,0,0,0,0,0,
1,0,2,0,2,0,2,0,2,0,2,0,2,0,2,0,2,0,2,0,2,0,2,0,2,0,2,0,2,0,2,0,2,0,2,0,2,0,2,0,2,0,2,0,2,0,3,0,
0,0,0,0,0,0,0,0,0,0,0,0,0,0,0,0,0,0,0,0,0,0,0,0,0,0,0,0,0,0,0,0,0,0,0,0,0,0,0,0,0,0,0,0,0,0,0,0,
4,0,83,0,84,0,83,0,84,0,85,0,86,0,83,0,84,0,83,0,84,0,83,0,84,0,83,0,84,0,83,0,84,0,85,0,86,0,83,0,84,0,83,0,84,0,13,0,
0,0,0,0,0,0,0,0,0,0,0,0,0,0,0,0,0,0,0,0,0,0,0,0,0,0,0,0,0,0,0,0,0,0,0,0,0,0,0,0,0,0,0,0,0,0,0,0,
4,0,87,0,88,0,87,0,88,0,89,0,90,0,87,0,88,0,87,0,88,0,87,0,88,0,87,0,88,0,87,0,88,0,89,0,90,0,87,0,88,0,87,0,88,0,13,0,
0,0,0,0,0,0,0,0,0,0,0,0,0,0,0,0,0,0,0,0,0,0,0,0,0,0,0,0,0,0,0,0,0,0,0,0,0,0,0,0,0,0,0,0,0,0,0,0,
4,0,91,0,91,0,91,0,91,0,92,0,93,0,91,0,91,0,91,0,91,0,91,0,91,0,91,0,91,0,91,0,91,0,92,0,93,0,91,0,91,0,91,0,91,0,13,0,
0,0,0,0,0,0,0,0,0,0,0,0,0,0,0,0,0,0,0,0,0,0,0,0,0,0,0,0,0,0,0,0,0,0,0,0,0,0,0,0,0,0,0,0,0,0,0,0,
4,0,94,0,94,0,94,0,94,0,94,0,94,0,94,0,94,0,94,0,94,0,94,0,94,0,94,0,94,0,94,0,94,0,94,0,94,0,94,0,94,0,94,0,94,0,13,0,
0,0,0,0,0,0,0,0,0,0,0,0,0,0,0,0,0,0,0,0,0,0,0,0,0,0,0,0,0,0,0,0,0,0,0,0,0,0,0,0,0,0,0,0,0,0,0,0,
4,0,94,0,94,0,94,0,94,0,94,0,94,0,94,0,94,0,94,0,94,0,94,0,94,0,94,0,94,0,94,0,94,0,94,0,94,0,94,0,94,0,94,0,94,0,13,0,
0,0,0,0,0,0,0,0,0,0,0,0,0,0,0,0,0,0,0,0,0,0,0,0,0,0,0,0,0,0,0,0,0,0,0,0,0,0,0,0,0,0,0,0,0,0,0,0,
4,0,94,0,94,0,94,0,94,0,94,0,94,0,94,0,94,0,94,0,94,0,94,0,94,0,94,0,94,0,94,0,94,0,94,0,94,0,94,0,94,0,94,0,94,0,13,0,
0,0,0,0,0,0,0,0,0,0,0,0,0,0,0,0,0,0,0,0,0,0,0,0,0,0,0,0,0,0,0,0,0,0,0,0,0,0,0,0,0,0,0,0,0,0,0,0,
4,0,94,0,94,0,94,0,94,0,94,0,94,0,94,0,94,0,94,0,94,0,94,0,94,0,94,0,94,0,94,0,94,0,94,0,94,0,94,0,94,0,94,0,94,0,13,0,
0,0,0,0,0,0,0,0,0,0,0,0,0,0,0,0,0,0,0,0,0,0,0,0,0,0,0,0,0,0,0,0,0,0,0,0,0,0,0,0,0,0,0,0,0,0,0,0,
4,0,94,0,94,0,94,0,94,0,94,0,94,0,94,0,94,0,94,0,94,0,94,0,94,0,94,0,94,0,94,0,94,0,94,0,94,0,94,0,94,0,94,0,94,0,13,0,
0,0,0,0,0,0,0,0,0,0,0,0,0,0,0,0,0,0,0,0,0,0,0,0,0,0,0,0,0,0,0,0,0,0,0,0,0,0,0,0,0,0,0,0,0,0,0,0,
4,0,94,0,94,0,94,0,94,0,94,0,94,0,94,0,94,0,94,0,94,0,94,0,94,0,94,0,94,0,94,0,94,0,94,0,94,0,94,0,94,0,94,0,94,0,13,0,
0,0,0,0,0,0,0,0,0,0,0,0,0,0,0,0,0,0,0,0,0,0,0,0,0,0,0,0,0,0,0,0,0,0,0,0,0,0,0,0,0,0,0,0,0,0,0,0,
4,0,94,0,94,0,94,0,94,0,94,0,94,0,94,0,94,0,94,0,94,0,94,0,94,0,94,0,94,0,94,0,94,0,94,0,94,0,94,0,94,0,94,0,94,0,13,0,
0,0,0,0,0,0,0,0,0,0,0,0,0,0,0,0,0,0,0,0,0,0,0,0,0,0,0,0,0,0,0,0,0,0,0,0,0,0,0,0,0,0,0,0,0,0,0,0,
4,0,94,0,94,0,94,0,94,0,94,0,94,0,94,0,94,0,94,0,94,0,94,0,94,0,94,0,94,0,94,0,94,0,94,0,94,0,94,0,94,0,94,0,94,0,13,0,
0,0,0,0,0,0,0,0,0,0,0,0,0,0,0,0,0,0,0,0,0,0,0,0,0,0,0,0,0,0,0,0,0,0,0,0,0,0,0,0,0,0,0,0,0,0,0,0,
4,0,94,0,94,0,94,0,94,0,94,0,94,0,94,0,94,0,94,0,94,0,94,0,94,0,94,0,94,0,94,0,94,0,94,0,94,0,94,0,94,0,94,0,94,0,13,0,
0,0,0,0,0,0,0,0,0,0,0,0,0,0,0,0,0,0,0,0,0,0,0,0,0,0,0,0,0,0,0,0,0,0,0,0,0,0,0,0,0,0,0,0,0,0,0,0,
4,0,94,0,94,0,94,0,94,0,94,0,94,0,94,0,94,0,94,0,94,0,94,0,94,0,94,0,94,0,94,0,94,0,94,0,94,0,94,0,94,0,94,0,94,0,13,0,
0,0,0,0,0,0,0,0,0,0,0,0,0,0,0,0,0,0,0,0,0,0,0,0,0,0,0,0,0,0,0,0,0,0,0,0,0,0,0,0,0,0,0,0,0,0,0,0,
4,0,94,0,94,0,94,0,94,0,94,0,94,0,94,0,94,0,94,0,94,0,95,0,96,0,94,0,94,0,94,0,94,0,94,0,94,0,94,0,94,0,94,0,94,0,13,0,
0,0,0,0,0,0,0,0,0,0,0,0,0,0,0,0,0,0,0,0,0,0,0,0,0,0,0,0,0,0,0,0,0,0,0,0,0,0,0,0,0,0,0,0,0,0,0,0,
78,0,79,0,79,0,79,0,79,0,79,0,79,0,79,0,79,0,79,0,79,0,97,0,97,0,79,0,79,0,79,0,79,0,79,0,79,0,79,0,79,0,79,0,79,0,82,0
</data>
 </layer>
 <objectgroup id="119" name="muebles">
  <object id="1" name="estante_frascos" x="92" y="300" gid="328" width="52" height="69"><properties><property name="pie" type="int" value="20"/></properties></object>
  <object id="2" name="estante_frascos" x="150" y="300" gid="328" width="52" height="69"><properties><property name="pie" type="int" value="20"/></properties></object>
  <object id="3" name="barril" x="214" y="308" gid="307" width="54" height="60"/>
  <object id="4" name="barril_abierto" x="272" y="308" gid="308" width="54" height="60"/>
  <object id="5" name="cajon" x="334" y="306" gid="311" width="58" height="48"/>
  <object id="6" name="barra" x="104" y="440" gid="305" width="174" height="108"><properties><property name="pie" type="int" value="42"/></properties></object>
  <object id="7" name="taburete_bar" x="116" y="482" gid="356" width="29" height="32"/>
  <object id="8" name="taburete_bar" x="166" y="482" gid="356" width="29" height="32"/>
  <object id="9" name="taburete_bar" x="216" y="482" gid="356" width="29" height="32"/>
  <object id="10" name="aplique" x="250" y="200" gid="302" width="18" height="32"><properties><property name="plano" type="bool" value="true"/><property name="anim" type="string" value="vela"/><property name="fx" type="int" value="9"/><property name="fy" type="int" value="4"/><property name="k" type="float" value="1.25"/></properties></object>
  <object id="11" name="cuadro_dia" x="460" y="192" gid="323" width="90" height="49"><properties><property name="plano" type="bool" value="true"/></properties></object>
  <object id="12" name="pila_lena" x="622" y="306" gid="347" width="86" height="52"/>
  <object id="13" name="chimenea" x="728" y="302" gid="320" width="78" height="104"><properties><property name="anim" type="string" value="fuego"/><property name="fx" type="int" value="39"/><property name="fy" type="int" value="80"/><property name="pie" type="int" value="33"/><property name="k" type="float" value="1.5"/></properties></object>
  <object id="14" name="alfombra_azul" x="700" y="420" gid="297" width="136" height="68"><properties><property name="plano" type="bool" value="true"/></properties></object>
  <object id="15" name="aplique" x="600" y="200" gid="302" width="18" height="32"><properties><property name="plano" type="bool" value="true"/><property name="anim" type="string" value="vela"/><property name="fx" type="int" value="9"/><property name="fy" type="int" value="4"/><property name="k" type="float" value="1.25"/></properties></object>
  <object id="16" name="aplique" x="900" y="200" gid="302" width="18" height="32"><properties><property name="plano" type="bool" value="true"/><property name="anim" type="string" value="vela"/><property name="fx" type="int" value="9"/><property name="fy" type="int" value="4"/><property name="k" type="float" value="1.25"/></properties></object>
  <object id="17" name="cesta" x="830" y="300" gid="319" width="40" height="44"/>
  <object id="18" name="expositor_fruta" x="880" y="316" gid="334" width="59" height="76"><properties><property name="pie" type="int" value="22"/></properties></object>
  <object id="19" name="expositor_verdura" x="946" y="316" gid="336" width="59" height="76"><properties><property name="pie" type="int" value="22"/></properties></object>
  <object id="20" name="cajon" x="1020" y="306" gid="311" width="58" height="48"/>
  <object id="21" name="cuadro_bosque" x="1000" y="170" gid="322" width="90" height="49"><properties><property name="plano" type="bool" value="true"/></properties></object>
  <object id="22" name="barril" x="1280" y="310" gid="307" width="54" height="60"/>
  <object id="23" name="escalera" x="1360" y="300" gid="326" width="81" height="85"><properties><property name="pie" type="int" value="42"/></properties></object>
  <object id="24" name="aplique" x="1250" y="200" gid="302" width="18" height="32"><properties><property name="plano" type="bool" value="true"/><property name="anim" type="string" value="vela"/><property name="fx" type="int" value="9"/><property name="fy" type="int" value="4"/><property name="k" type="float" value="1.25"/></properties></object>
  <object id="25" name="mesa_larga" x="300" y="724" gid="343" width="65" height="128"><properties><property name="anim" type="string" value="vela"/><property name="fx" type="int" value="32"/><property name="fy" type="int" value="28"/><property name="k" type="float" value="1.25"/></properties></object>
  <object id="26" name="silla" x="262" y="650" gid="353" width="30" height="56"/>
  <object id="27" name="silla" x="262" y="716" gid="353" width="30" height="56"/>
  <object id="28" name="silla_b" x="372" y="650" gid="354" width="30" height="56"/>
  <object id="29" name="silla_b" x="372" y="716" gid="354" width="30" height="56"/>
  <object id="30" name="mesa_larga" x="530" y="724" gid="343" width="65" height="128"><properties><property name="anim" type="string" value="vela"/><property name="fx" type="int" value="32"/><property name="fy" type="int" value="28"/><property name="k" type="float" value="1.25"/></properties></object>
  <object id="31" name="silla" x="492" y="650" gid="353" width="30" height="56"/>
  <object id="32" name="silla" x="492" y="716" gid="353" width="30" height="56"/>
  <object id="33" name="silla_b" x="602" y="650" gid="354" width="30" height="56"/>
  <object id="34" name="silla_b" x="602" y="716" gid="354" width="30" height="56"/>
  <object id="35" name="mesa_larga" x="950" y="724" gid="343" width="65" height="128"><properties><property name="anim" type="string" value="vela"/><property name="fx" type="int" value="32"/><property name="fy" type="int" value="28"/><property name="k" type="float" value="1.25"/></properties></object>
  <object id="36" name="silla" x="912" y="650" gid="353" width="30" height="56"/>
  <object id="37" name="silla" x="912" y="716" gid="353" width="30" height="56"/>
  <object id="38" name="silla_b" x="1022" y="650" gid="354" width="30" height="56"/>
  <object id="39" name="silla_b" x="1022" y="716" gid="354" width="30" height="56"/>
  <object id="40" name="mesa_larga" x="1180" y="724" gid="343" width="65" height="128"><properties><property name="anim" type="string" value="vela"/><property name="fx" type="int" value="32"/><property name="fy" type="int" value="28"/><property name="k" type="float" value="1.25"/></properties></object>
  <object id="41" name="silla" x="1142" y="650" gid="353" width="30" height="56"/>
  <object id="42" name="silla" x="1142" y="716" gid="353" width="30" height="56"/>
  <object id="43" name="silla_b" x="1252" y="650" gid="354" width="30" height="56"/>
  <object id="44" name="silla_b" x="1252" y="716" gid="354" width="30" height="56"/>
  <object id="45" name="mesa_comida" x="170" y="904" gid="341" width="102" height="55"/>
  <object id="46" name="taburete" x="130" y="930" gid="355" width="32" height="28"/>
  <object id="47" name="taburete" x="280" y="930" gid="355" width="32" height="28"/>
  <object id="48" name="mesa_comida" x="1170" y="904" gid="341" width="102" height="55"/>
  <object id="49" name="taburete" x="1130" y="930" gid="355" width="32" height="28"/>
  <object id="50" name="taburete" x="1280" y="930" gid="355" width="32" height="28"/>
  <object id="51" name="alfombra_pasillo" x="742" y="954" gid="299" width="52" height="338"><properties><property name="plano" type="bool" value="true"/></properties></object>
  <object id="52" name="planta_flores" x="84" y="800" gid="350" width="64" height="79"/>
  <object id="53" name="planta_alta" x="1420" y="820" gid="348" width="39" height="82"/>
  <object id="54" name="planta_pequena" x="1420" y="520" gid="351" width="30" height="50"/>
 </objectgroup>
 <objectgroup id="120" name="colisiones">
  <object id="55" name="" x="0" y="0" width="1536" height="260"/>
  <object id="56" name="" x="0" y="0" width="68" height="1024"/>
  <object id="57" name="" x="1468" y="0" width="68" height="1024"/>
  <object id="58" name="" x="0" y="968" width="712" height="56"/>
  <object id="59" name="" x="824" y="968" width="712" height="56"/>
  <object id="60" name="" x="98" y="280" width="40" height="20"/>
  <object id="61" name="" x="156" y="280" width="40" height="20"/>
  <object id="62" name="" x="220" y="288" width="42" height="20"/>
  <object id="63" name="" x="278" y="288" width="42" height="20"/>
  <object id="64" name="" x="340" y="286" width="46" height="20"/>
  <object id="65" name="" x="110" y="398" width="162" height="42"/>
  <object id="66" name="" x="122" y="462" width="17" height="20"/>
  <object id="67" name="" x="172" y="462" width="17" height="20"/>
  <object id="68" name="" x="222" y="462" width="17" height="20"/>
  <object id="69" name="" x="628" y="286" width="74" height="20"/>
  <object id="70" name="" x="734" y="269" width="66" height="33"/>
  <object id="71" name="" x="836" y="280" width="28" height="20"/>
  <object id="72" name="" x="886" y="294" width="47" height="22"/>
  <object id="73" name="" x="952" y="294" width="47" height="22"/>
  <object id="74" name="" x="1026" y="286" width="46" height="20"/>
  <object id="75" name="" x="1286" y="290" width="42" height="20"/>
  <object id="76" name="" x="1366" y="258" width="69" height="42"/>
  <object id="77" name="" x="306" y="684" width="53" height="40"/>
  <object id="78" name="" x="268" y="630" width="18" height="20"/>
  <object id="79" name="" x="268" y="696" width="18" height="20"/>
  <object id="80" name="" x="378" y="630" width="18" height="20"/>
  <object id="81" name="" x="378" y="696" width="18" height="20"/>
  <object id="82" name="" x="536" y="684" width="53" height="40"/>
  <object id="83" name="" x="498" y="630" width="18" height="20"/>
  <object id="84" name="" x="498" y="696" width="18" height="20"/>
  <object id="85" name="" x="608" y="630" width="18" height="20"/>
  <object id="86" name="" x="608" y="696" width="18" height="20"/>
  <object id="87" name="" x="956" y="684" width="53" height="40"/>
  <object id="88" name="" x="918" y="630" width="18" height="20"/>
  <object id="89" name="" x="918" y="696" width="18" height="20"/>
  <object id="90" name="" x="1028" y="630" width="18" height="20"/>
  <object id="91" name="" x="1028" y="696" width="18" height="20"/>
  <object id="92" name="" x="1186" y="684" width="53" height="40"/>
  <object id="93" name="" x="1148" y="630" width="18" height="20"/>
  <object id="94" name="" x="1148" y="696" width="18" height="20"/>
  <object id="95" name="" x="1258" y="630" width="18" height="20"/>
  <object id="96" name="" x="1258" y="696" width="18" height="20"/>
  <object id="97" name="" x="176" y="884" width="90" height="20"/>
  <object id="98" name="" x="136" y="910" width="20" height="20"/>
  <object id="99" name="" x="286" y="910" width="20" height="20"/>
  <object id="100" name="" x="1176" y="884" width="90" height="20"/>
  <object id="101" name="" x="1136" y="910" width="20" height="20"/>
  <object id="102" name="" x="1286" y="910" width="20" height="20"/>
  <object id="103" name="" x="90" y="775" width="52" height="25"/>
  <object id="104" name="" x="1426" y="794" width="27" height="26"/>
  <object id="105" name="" x="1426" y="500" width="18" height="20"/>
 </objectgroup>
 <objectgroup id="121" name="salida">
  <object id="106" name="salida" x="716" y="964" width="104" height="52"/>
 </objectgroup>
 <objectgroup id="122" name="aparicion">
  <object id="107" name="aparicion" x="768" y="832"><point/></object>
 </objectgroup>
 <objectgroup id="123" name="luces">
  <object id="108" name="ventana" x="352" y="256" width="100" height="240"/>
  <object id="109" name="ventana" x="1120" y="256" width="100" height="240"/>
  <object id="110" name="vela" x="259" y="172"><point/><properties><property name="radio" type="int" value="108"/></properties></object>
  <object id="111" name="fuego" x="767" y="278"><point/><properties><property name="radio" type="int" value="240"/></properties></object>
  <object id="112" name="vela" x="609" y="172"><point/><properties><property name="radio" type="int" value="108"/></properties></object>
  <object id="113" name="vela" x="909" y="172"><point/><properties><property name="radio" type="int" value="108"/></properties></object>
  <object id="114" name="vela" x="1259" y="172"><point/><properties><property name="radio" type="int" value="108"/></properties></object>
  <object id="115" name="vela" x="332" y="624"><point/><properties><property name="radio" type="int" value="108"/></properties></object>
  <object id="116" name="vela" x="562" y="624"><point/><properties><property name="radio" type="int" value="108"/></properties></object>
  <object id="117" name="vela" x="982" y="624"><point/><properties><property name="radio" type="int" value="108"/></properties></object>
  <object id="118" name="vela" x="1212" y="624"><point/><properties><property name="radio" type="int" value="108"/></properties></object>
 </objectgroup>
</map>
